X: 11361
M: 2/4
L: 1/8
K: Eb
V: 1 name="Eb Bugle" sname="EbBgl" staves=8
K: C
|: z4 | z4 | z4 | z4 | z4 | z4 | z4 | z4 :|
|: !ff!\
ee/e/ e2 | dcAd | dd/d/ d2 | GGAc |\
ee/e/ e2 | dcAd | d>d eE | GGAc H:|
V: 2 name="Bb Bugle" sname="BbBgl"
K: F
|: z4 | z4 | z4 | z4 | z4 | z4 | z4 | z4 :|
|: !ff!\
aa/a/ a2 | gedf | gg/g/ g2 | ccdf |\
aa/a/ a2 | gfdf | g>g ac | ccdf H:|
V: 3 name=" Bb Post Horn" sname="BbPHn"
K: F
|:\
ff/f/ ff | fffc | ff/f/ ga | ccdc |\
ff/f/ ff | fffc | ff/f/ ga | ccdf :|
|: !ff!\
ff/f/ f2 | BABA | ee/e/ e2 | AABA |\
ff/f/ f2 | BABA | e>e fA | AABA :|
V: 4 name="Bb Cornopean" sname="BbCrn"
K: F
|:\
|: !ff!\
cc/c/ c2 | BABA | cc/c/ c2 | AABc |\
cc/c/ c2 | BABA | c>c cc | cA BA H:|
V: 5 name="Tenor Trombone" sname="TTbm" clef=bass middle=D
K: Eb
|: z4 | z4 | z4 | z4 | z4 | z4 | z4 | z4 :|
|: !ff! \
ee/e/ e2 | !/!f4 | dd/d/ d2 | BBce |\
ee/e/ e2 | fe ce | B>B BB | eeee H:|
V: 6 name="Base Trombone" sname="BTbn" clef=bass middle=d
K: Eb
|:\
ez ez | ez ez | ez ez | ez ez |\
ez ez | ez ez | ez ez | ez ez :|
|: !ff! \
ee/e/ e2 | !/!e4 | bb/b/ b2 | !/!e4 |\
ee/e/ e2 | !/!e4 | B>B ee | !/!e4 H:|
V: 7 name="1st Ophecleide" sname="Oph1" clef=bass middle=d
K: Eb
|:\
ee/e/ ee | !/!e4 | ee/e/ ee | !/!e4 |\
ee/e/ ee | !/!e4 | ee/e/ ee | !/!e4 :|
|: !ff!\
ee/e/ e2 | !/!e4 | BB/B/ b2 | ggag |\
ee/e/ e2 | agag | b>b ee | !/!e4 H:|
V: 8 name="2d Ophecleide" sname="Oph2" clef=bass middle=d
K: Eb
EE/E/ EE | !/!E4 | EE/E/ EE | !/!E4 |\
EE/E/ EE | !/!E4 | EE/E/ EE | !/!E4 H:|
|: !ff!\
ee/e/ e2 | !/!E4 | BB/B/ B2 | !/!E4 |\
EE/E/ E2 | !/!E4 | B>B EE | !/!E4 H:|



